img/logo.svg

<svg width="40" height="40" viewBox="0 0 40 40" fill="none" xmlns="http://www.w3.org/2000/svg">
<path d="M40 20C40 30.6857 31.6196 39.4147 21.0727 39.9714C20.7176 39.9902 20.36 40 20 40C18.9486 40 17.9167 39.9192 16.9094 39.7624C16.0343 39.6269 15.1787 39.4351 14.3461 39.1894C13.013 38.7975 11.7387 38.271 10.538 37.6244C8.16734 36.3494 6.08406 34.6098 4.40898 32.5273C4.07187 32.1094 3.75187 31.6767 3.44898 31.231C1.27187 28.0294 0 24.1633 0 20C0 8.9543 8.9543 0 20 0C31.0457 0 40 8.9543 40 20Z" fill="url(#paint0_linear)"/>
<path d="M34.5357 13.7828C34.0598 12.5126 33.1961 11.4106 31.943 10.4726C31.2165 9.92894 30.2663 9.4416 29.1373 8.99832L30.3871 4.19504L26.4369 3.16652L25.2287 7.8073L22.6891 7.14691L23.8965 2.50613L19.9462 1.47754L18.7381 6.11832L10.352 3.93551L9.3357 7.84082L10.4467 8.13058C11.1863 8.32246 11.672 8.5216 11.9014 8.72488C12.1275 8.9273 12.2663 9.15832 12.3137 9.4155C12.3651 9.67347 12.277 10.2188 12.0598 11.0555L7.96266 26.7951C7.74875 27.6171 7.55695 28.1339 7.38797 28.3412C7.21898 28.551 6.98797 28.6841 6.69086 28.7436C6.39289 28.8024 5.51047 28.6424 4.77086 28.4506L3.44922 31.231C3.75211 31.6767 4.07211 32.1093 4.40922 32.5273L11.3921 34.3444L10.5382 37.6244C11.739 38.271 13.0133 38.7975 14.3463 39.1893L15.3398 35.3722L17.7937 36.0114C17.8223 36.018 17.8516 36.0237 17.8802 36.031L16.9096 39.7625C17.9169 39.9192 18.9487 40 20.0002 40C20.3602 40 20.7177 39.9902 21.0728 39.9714L21.8908 36.8293C23.2108 36.9959 24.3471 37.0212 25.2924 36.9003C27.1137 36.6685 28.6418 36.04 29.872 35.0122C31.103 33.9869 31.9137 32.7249 32.3039 31.2261C32.6272 29.9739 32.6247 28.7608 32.2982 27.5869C31.9701 26.4171 31.3749 25.4122 30.5096 24.5845C29.9169 23.9992 29.0002 23.3625 27.7676 22.6849C29.1096 22.5861 30.2353 22.3143 31.1569 21.8702C32.072 21.4236 32.8394 20.8359 33.459 20.1012C34.0737 19.3698 34.5055 18.5371 34.7471 17.6065C35.0809 16.3265 35.0091 15.0514 34.5357 13.7828ZM25.1699 28.5771C24.916 29.5591 24.4197 30.3289 23.6866 30.8881C22.9519 31.444 22.1609 31.733 21.316 31.751C20.4719 31.7689 19.4499 31.6236 18.2523 31.3117L16.1927 30.7754C15.5046 30.5967 15.0964 30.4497 14.9601 30.3354C14.8245 30.2195 14.7487 30.0611 14.7291 29.8538C14.712 29.6897 14.8107 29.1795 15.0221 28.3093L16.6123 22.1991L20.2637 23.1493C21.867 23.5673 23.0188 24.026 23.7234 24.5257C24.4262 25.0236 24.898 25.6163 25.1373 26.2979C25.3765 26.9812 25.3879 27.7396 25.1699 28.5771ZM27.6319 16.8832C27.4466 17.5975 27.0866 18.1771 26.5519 18.6212C26.0197 19.0669 25.3291 19.3232 24.4842 19.3902C23.6385 19.4579 22.4066 19.2825 20.7871 18.8612L17.6932 18.0555L19.4842 11.1739L22.5781 11.9788C24.3871 12.4498 25.6116 12.8882 26.2548 13.2931C26.8973 13.698 27.3348 14.2139 27.5708 14.8343C27.8034 15.4571 27.8262 16.1396 27.6319 16.8832Z" fill="white"/>
<defs>
<linearGradient id="paint0_linear" x1="-5.5" y1="5" x2="43" y2="37" gradientUnits="userSpaceOnUse">
<stop stop-color="#0AAAFE"/>
<stop offset="1" stop-color="#3789F0"/>
</linearGradient>
</defs>
</svg>

<svg width="40" height="40" fill="none" xmlns="http://www.w3.org/2000/svg"><path d="M40 20c0 10.686-8.38 19.415-18.927 19.971a20.286 20.286 0 0 1-4.164-.209 19.816 19.816 0 0 1-6.371-2.138 20.077 20.077 0 0 1-7.089-6.393A19.904 19.904 0 0 1 0 20C0 8.954 8.954 0 20 0s20 8.954 20 20z" fill="url(#a)"/><path d="M34.536 13.783c-.476-1.27-1.34-2.372-2.593-3.31-.727-.544-1.677-1.031-2.806-1.475l1.25-4.803-3.95-1.028-1.208 4.64-2.54-.66 1.207-4.64-3.95-1.03-1.208 4.641-8.386-2.182L9.336 7.84l1.11.29c.74.191 1.226.39 1.455.594.226.202.365.433.413.69.051.258-.037.804-.254 1.64l-4.097 15.74c-.214.822-.406 1.339-.575 1.546-.169.21-.4.343-.697.403-.298.058-1.18-.102-1.92-.293l-1.322 2.78c.303.446.623.878.96 1.296l6.983 1.817-.854 3.28c1.201.647 2.475 1.173 3.808 1.565l.994-3.817 2.454.64.086.019-.97 3.732a20.093 20.093 0 0 0 4.163.208l.818-3.142c1.32.167 2.456.192 3.401.071 1.822-.231 3.35-.86 4.58-1.888 1.231-1.025 2.042-2.287 2.432-3.786.323-1.252.32-2.465-.006-3.64a6.514 6.514 0 0 0-1.788-3.002c-.593-.585-1.51-1.221-2.742-1.9 1.342-.098 2.467-.37 3.389-.814a6.953 6.953 0 0 0 2.302-1.769 6.292 6.292 0 0 0 1.288-2.494c.334-1.28.262-2.556-.211-3.824zM25.17 28.577c-.254.982-.75 1.752-1.483 2.311-.735.556-1.526.845-2.371.863-.844.018-1.866-.127-3.064-.44l-2.06-.536c-.687-.178-1.096-.325-1.232-.44a.686.686 0 0 1-.23-.481c-.018-.164.08-.674.292-1.545l1.59-6.11 3.652.95c1.603.418 2.755.877 3.46 1.377.702.498 1.174 1.09 1.413 1.772.24.683.25 1.442.033 2.28zm2.462-11.694c-.185.715-.545 1.294-1.08 1.738-.532.446-1.223.702-2.068.77-.846.067-2.077-.108-3.697-.53l-3.094-.806 1.791-6.881 3.094.805c1.81.47 3.034.91 3.677 1.314.642.405 1.08.92 1.316 1.541.232.623.255 1.306.06 2.05z" fill="#fff"/><defs><linearGradient id="a" x1="-5.5" y1="5" x2="43" y2="37" gradientUnits="userSpaceOnUse"><stop stop-color="#0AAAFE"/><stop offset="1" stop-color="#3789F0"/></linearGradient></defs></svg>
